Newaita-dark/apps/48/gnome-pomodoro.svg

<svg height="48pt" viewBox="0 0 48 48" width="48pt" xmlns="http://www.w3.org/2000/svg" xmlns:xlink="http://www.w3.org/1999/xlink"><linearGradient id="a"><stop offset="0" stop-opacity=".313726"/><stop offset=".222222" stop-opacity=".27451"/><stop offset="1" stop-opacity="0"/></linearGradient><radialGradient id="b" cx="450.908936" cy="189.579361" gradientTransform="matrix(.00000026 -.117199 -.210958 -.00000015 66.784728 95.392994)" gradientUnits="userSpaceOnUse" r="21.166656" xlink:href="#a"/><radialGradient id="c" cx="450.908936" cy="189.579361" gradientTransform="matrix(-.00000026 .117199 .210958 .00000015 -19.155178 -11.291223)" gradientUnits="userSpaceOnUse" r="21.166656" xlink:href="#a"/><radialGradient id="d" cx="450.908936" cy="189.579361" gradientTransform="matrix(-.00000026 -.117199 .210958 -.00000015 -19.155178 95.392994)" gradientUnits="userSpaceOnUse" r="21.166656" xlink:href="#a"/><radialGradient id="e" cx="450.908936" cy="189.579361" gradientTransform="matrix(.00000026 .117199 -.210958 .00000015 66.784725 -11.291224)" gradientUnits="userSpaceOnUse" r="21.166656" xlink:href="#a"/><linearGradient id="f" gradientTransform="matrix(.0200401 0 0 .093759 18.698079 20.158175)" gradientUnits="userSpaceOnUse" x1="255.323059" x2="255.323044" y1="233.5" y2="254.666656"><stop offset="0" stop-opacity=".27451"/><stop offset="1" stop-opacity="0"/></linearGradient><linearGradient id="g" gradientUnits="userSpaceOnUse" x1="23.814816" x2="23.814816" y1="42.05096580616" y2="4.34417266504"><stop offset="0" stop-color="#e0e0e0"/><stop offset="1" stop-color="#eee"/></linearGradient><path d="m27.289062 42.050781h3.96875v-1.984375h-3.96875zm0 0" fill="url(#b)"/><path d="m20.339844 42.050781h-3.96875v1.984375h3.96875zm0 0" fill="url(#c)"/><path d="m20.339844 42.050781h-3.96875v-1.984375h3.96875zm0 0" fill="url(#d)"/><path d="m27.289062 42.050781h3.96875v1.984375h-3.96875zm0 0" fill="url(#e)"/><path d="m20.339844 41.554688h6.949218v2.480468h-6.949218zm0 0" fill="url(#f)"/><path d="m7.9375 25.183594v.992187c0 8.792969 7.082031 15.875 15.878906 15.875 8.792969 0 15.875-7.082031 15.875-15.875v-.992187c0-10.421875-7.9375-20.890625-15.875-20.890625-7.941406 0-15.878906 10.46875-15.878906 20.890625zm0 0" fill="url(#g)"/><path d="m23.816406 4.292969c-7.941406 0-15.878906 10.46875-15.878906 20.890625v.527344c0-10.417969 7.9375-20.890626 15.878906-20.890626 7.9375 0 15.875 10.472657 15.875 20.890626v-.527344c0-10.421875-7.9375-20.890625-15.875-20.890625zm0 0" fill="#fff" fill-opacity=".784314"/><path d="m7.9375 25.4375v.738281c0 8.792969 7.082031 15.875 15.878906 15.875 8.792969 0 15.875-7.082031 15.875-15.875v-.738281c0 8.792969-7.082031 15.875-15.875 15.875-8.796875 0-15.878906-7.082031-15.878906-15.875zm0 0" fill-opacity=".235294"/><path d="m16.472656 12.039062c.839844.484376.777344 2.167969-.136718 3.753907-.917969 1.589843-2.34375 2.484375-3.183594 2-.84375-.488281-.78125-2.167969.136718-3.757813.917969-1.589844 2.34375-2.480468 3.183594-1.996094zm0 0" fill="#fff" fill-opacity=".588235"/><path d="m7.9375 25.722656v.292969c4.222656 1.25 9.773438 2.007813 15.878906 2.007813 6.101563 0 11.65625-.757813 15.875-2.007813v-.292969c-4.195312 1.253906-9.757812 2.019532-15.875 2.019532-6.121094 0-11.683594-.765626-15.878906-2.019532zm0 0" fill-opacity=".235294"/><path d="m7.9375 26.277344c.003906.097656.003906.195312.003906.292968 4.222656 1.25 9.773438 2.007813 15.875 2.007813 6.097656 0 11.648438-.757813 15.871094-2.007813 0-.097656.003906-.195312.003906-.292968-4.195312 1.253906-9.757812 2.019531-15.875 2.019531-6.121094 0-11.683594-.765625-15.878906-2.019531zm0 0" fill="#fff" fill-opacity=".588235"/><path d="m319.969461 1015.178699v39.996183c0 354.454359 285.484564 639.938922 640.096388 639.938922 354.454359 0 639.938923-285.484563 639.938923-639.938922v-39.996183c0-420.117383-319.969462-842.12435-639.938923-842.12435-320.126926 0-640.096388 422.006967-640.096388 842.12435zm0 0" fill="none" stroke="#212121" stroke-linecap="round" stroke-linejoin="round" stroke-width="11.338583" transform="scale(.0248071)"/><path d="m7.9375 26v.175781.117188c4.222656 1.25 9.773438 2.007812 15.878906 2.007812 6.101563 0 11.652344-.757812 15.875-2.007812 0-.039063 0-.078125 0-.117188v-.175781c-4.195312 1.253906-9.757812 2.019531-15.875 2.019531-6.121094 0-11.683594-.765625-15.878906-2.019531zm0 0" fill-opacity=".588235"/><g fill="#424242"><path d="m23.828125 29.152344c-.179687-.007813-.355469.078125-.464844.222656l-1.488281 1.984375c-.167969.226563-.144531.539063.054688.738281.253906.253906.554687.351563.871093.425782.320313.078124.667969.109374 1.015625.109374s.691406-.03125 1.011719-.109374c.316406-.074219.617187-.171876.871094-.425782.199219-.199218.222656-.511718.054687-.738281l-1.488281-1.984375c-.105469-.136719-.265625-.21875-.4375-.222656zm0 0"/><path d="m23.566406 24.191406h.496094c.136719 0 .25.109375.25.246094v2.976562c0 .136719-.113281.25-.25.25h-.496094c-.136718 0-.246094-.113281-.246094-.25v-2.976562c0-.136719.109376-.246094.246094-.246094zm0 0"/><path d="m21.582031 25.652344h.496094c.136719 0 .25.113281.25.25v1.488281c0 .136719-.113281.246094-.25.246094h-.496094c-.136719 0-.246093-.109375-.246093-.246094v-1.488281c0-.136719.109374-.25.246093-.25zm0 0"/><path d="m19.597656 25.554688h.496094c.136719 0 .246094.109374.246094.246093v1.488281c0 .136719-.109375.25-.246094.25h-.496094c-.136718 0-.25-.113281-.25-.25v-1.488281c0-.136719.113282-.246093.25-.246093zm0 0"/><path d="m17.613281 25.40625h.496094c.136719 0 .246094.109375.246094.246094v1.488281c0 .136719-.109375.25-.246094.25h-.496094c-.136719 0-.25-.113281-.25-.25v-1.488281c0-.136719.113281-.246094.25-.246094zm0 0"/><path d="m15.628906 23.695312h.496094c.136719 0 .246094.109376.246094.246094v2.976563c0 .136719-.109375.25-.246094.25h-.496094c-.136718 0-.25-.113281-.25-.25v-2.976563c0-.136718.113282-.246094.25-.246094zm0 0"/><path d="m13.644531 24.910156h.496094c.136719 0 .246094.109375.246094.246094v1.488281c0 .136719-.109375.25-.246094.25h-.496094c-.136719 0-.25-.113281-.25-.25v-1.488281c0-.136719.113281-.246094.25-.246094zm0 0"/><path d="m11.660156 24.5625h.496094c.136719 0 .246094.109375.246094.246094v1.488281c0 .136719-.109375.25-.246094.25h-.496094c-.136718 0-.25-.113281-.25-.25v-1.488281c0-.136719.113282-.246094.25-.246094zm0 0"/><path d="m9.675781 24.117188h.496094c.136719 0 .246094.109374.246094.246093v1.488281c0 .136719-.109375.25-.246094.25h-.496094c-.136719 0-.25-.113281-.25-.25v-1.488281c0-.136719.113281-.246093.25-.246093zm0 0"/></g></svg>

<?xml version="1.0" encoding="UTF-8"?>
<svg xmlns="http://www.w3.org/2000/svg" xmlns:xlink="http://www.w3.org/1999/xlink" width="48pt" height="48pt" viewBox="0 0 48 48" version="1.1">
<defs>
<radialGradient id="radial0" gradientUnits="userSpaceOnUse" cx="450.908936" cy="189.579361" fx="450.908936" fy="189.579361" r="21.166656" gradientTransform="matrix(0.000000261256,-0.117199,-0.210958,-0.000000152308,66.784728,95.392994)">
<stop offset="0" style="stop-color:rgb(0%,0%,0%);stop-opacity:0.313726;"/>
<stop offset="0.222222" style="stop-color:rgb(0%,0%,0%);stop-opacity:0.27451;"/>
<stop offset="1" style="stop-color:rgb(0%,0%,0%);stop-opacity:0;"/>
</radialGradient>
<radialGradient id="radial1" gradientUnits="userSpaceOnUse" cx="450.908936" cy="189.579361" fx="450.908936" fy="189.579361" r="21.166656" gradientTransform="matrix(-0.000000261256,0.117199,0.210958,0.000000152308,-19.155178,-11.291223)">
<stop offset="0" style="stop-color:rgb(0%,0%,0%);stop-opacity:0.313726;"/>
<stop offset="0.222222" style="stop-color:rgb(0%,0%,0%);stop-opacity:0.27451;"/>
<stop offset="1" style="stop-color:rgb(0%,0%,0%);stop-opacity:0;"/>
</radialGradient>
<radialGradient id="radial2" gradientUnits="userSpaceOnUse" cx="450.908936" cy="189.579361" fx="450.908936" fy="189.579361" r="21.166656" gradientTransform="matrix(-0.000000261256,-0.117199,0.210958,-0.000000152308,-19.155178,95.392994)">
<stop offset="0" style="stop-color:rgb(0%,0%,0%);stop-opacity:0.313726;"/>
<stop offset="0.222222" style="stop-color:rgb(0%,0%,0%);stop-opacity:0.27451;"/>
<stop offset="1" style="stop-color:rgb(0%,0%,0%);stop-opacity:0;"/>
</radialGradient>
<radialGradient id="radial3" gradientUnits="userSpaceOnUse" cx="450.908936" cy="189.579361" fx="450.908936" fy="189.579361" r="21.166656" gradientTransform="matrix(0.000000261256,0.117199,-0.210958,0.000000152308,66.784725,-11.291224)">
<stop offset="0" style="stop-color:rgb(0%,0%,0%);stop-opacity:0.313726;"/>
<stop offset="0.222222" style="stop-color:rgb(0%,0%,0%);stop-opacity:0.27451;"/>
<stop offset="1" style="stop-color:rgb(0%,0%,0%);stop-opacity:0;"/>
</radialGradient>
<linearGradient id="linear0" gradientUnits="userSpaceOnUse" x1="255.323059" y1="233.5" x2="255.323044" y2="254.666656" gradientTransform="matrix(0.0200401,0,0,0.093759,18.698079,20.158175)">
<stop offset="0" style="stop-color:rgb(0%,0%,0%);stop-opacity:0.27451;"/>
<stop offset="1" style="stop-color:rgb(0%,0%,0%);stop-opacity:0;"/>
</linearGradient>
<linearGradient id="linear1" gradientUnits="userSpaceOnUse" x1="960" y1="1695.118164" x2="960" y2="175.118118" gradientTransform="matrix(0.0248071,0,0,0.0248071,0,0.00000000000000282)">
<stop offset="0" style="stop-color:rgb(87.843138%,87.843138%,87.843138%);stop-opacity:1;"/>
<stop offset="1" style="stop-color:rgb(93.333334%,93.333334%,93.333334%);stop-opacity:1;"/>
</linearGradient>
</defs>
<g id="surface1">
<path style=" stroke:none;fill-rule:nonzero;fill:url(#radial0);" d="M 27.289062 42.050781 L 31.257812 42.050781 L 31.257812 40.066406 L 27.289062 40.066406 Z M 27.289062 42.050781 "/>
<path style=" stroke:none;fill-rule:nonzero;fill:url(#radial1);" d="M 20.339844 42.050781 L 16.371094 42.050781 L 16.371094 44.035156 L 20.339844 44.035156 Z M 20.339844 42.050781 "/>
<path style=" stroke:none;fill-rule:nonzero;fill:url(#radial2);" d="M 20.339844 42.050781 L 16.371094 42.050781 L 16.371094 40.066406 L 20.339844 40.066406 Z M 20.339844 42.050781 "/>
<path style=" stroke:none;fill-rule:nonzero;fill:url(#radial3);" d="M 27.289062 42.050781 L 31.257812 42.050781 L 31.257812 44.035156 L 27.289062 44.035156 Z M 27.289062 42.050781 "/>
<path style=" stroke:none;fill-rule:nonzero;fill:url(#linear0);" d="M 20.339844 41.554688 L 27.289062 41.554688 L 27.289062 44.035156 L 20.339844 44.035156 Z M 20.339844 41.554688 "/>
<path style=" stroke:none;fill-rule:nonzero;fill:url(#linear1);" d="M 7.9375 25.183594 L 7.9375 26.175781 C 7.9375 34.96875 15.019531 42.050781 23.816406 42.050781 C 32.609375 42.050781 39.691406 34.96875 39.691406 26.175781 L 39.691406 25.183594 C 39.691406 14.761719 31.753906 4.292969 23.816406 4.292969 C 15.875 4.292969 7.9375 14.761719 7.9375 25.183594 Z M 7.9375 25.183594 "/>
<path style=" stroke:none;fill-rule:nonzero;fill:rgb(100%,100%,100%);fill-opacity:0.784314;" d="M 23.816406 4.292969 C 15.875 4.292969 7.9375 14.761719 7.9375 25.183594 L 7.9375 25.710938 C 7.9375 15.292969 15.875 4.820312 23.816406 4.820312 C 31.753906 4.820312 39.691406 15.292969 39.691406 25.710938 L 39.691406 25.183594 C 39.691406 14.761719 31.753906 4.292969 23.816406 4.292969 Z M 23.816406 4.292969 "/>
<path style=" stroke:none;fill-rule:nonzero;fill:rgb(0%,0%,0%);fill-opacity:0.235294;" d="M 7.9375 25.4375 L 7.9375 26.175781 C 7.9375 34.96875 15.019531 42.050781 23.816406 42.050781 C 32.609375 42.050781 39.691406 34.96875 39.691406 26.175781 L 39.691406 25.4375 C 39.691406 34.230469 32.609375 41.3125 23.816406 41.3125 C 15.019531 41.3125 7.9375 34.230469 7.9375 25.4375 Z M 7.9375 25.4375 "/>
<path style=" stroke:none;fill-rule:nonzero;fill:rgb(100%,100%,100%);fill-opacity:0.588235;" d="M 16.472656 12.039062 C 17.3125 12.523438 17.25 14.207031 16.335938 15.792969 C 15.417969 17.382812 13.992188 18.277344 13.152344 17.792969 C 12.308594 17.304688 12.371094 15.625 13.289062 14.035156 C 14.207031 12.445312 15.632812 11.554688 16.472656 12.039062 Z M 16.472656 12.039062 "/>
<path style=" stroke:none;fill-rule:nonzero;fill:rgb(0%,0%,0%);fill-opacity:0.235294;" d="M 7.9375 25.722656 L 7.9375 26.015625 C 12.160156 27.265625 17.710938 28.023438 23.816406 28.023438 C 29.917969 28.023438 35.472656 27.265625 39.691406 26.015625 L 39.691406 25.722656 C 35.496094 26.976562 29.933594 27.742188 23.816406 27.742188 C 17.695312 27.742188 12.132812 26.976562 7.9375 25.722656 Z M 7.9375 25.722656 "/>
<path style=" stroke:none;fill-rule:nonzero;fill:rgb(100%,100%,100%);fill-opacity:0.588235;" d="M 7.9375 26.277344 C 7.941406 26.375 7.941406 26.472656 7.941406 26.570312 C 12.164062 27.820312 17.714844 28.578125 23.816406 28.578125 C 29.914062 28.578125 35.464844 27.820312 39.6875 26.570312 C 39.6875 26.472656 39.691406 26.375 39.691406 26.277344 C 35.496094 27.53125 29.933594 28.296875 23.816406 28.296875 C 17.695312 28.296875 12.132812 27.53125 7.9375 26.277344 Z M 7.9375 26.277344 "/>
<path style="fill:none;stroke-width:11.338583;stroke-linecap:round;stroke-linejoin:round;stroke:rgb(12.941177%,12.941177%,12.941177%);stroke-opacity:1;stroke-miterlimit:4;" d="M 319.969461 1015.178699 L 319.969461 1055.174882 C 319.969461 1409.629241 605.454025 1695.113804 960.065849 1695.113804 C 1314.520208 1695.113804 1600.004772 1409.629241 1600.004772 1055.174882 L 1600.004772 1015.178699 C 1600.004772 595.061316 1280.03531 173.054349 960.065849 173.054349 C 639.938923 173.054349 319.969461 595.061316 319.969461 1015.178699 Z M 319.969461 1015.178699 " transform="matrix(0.0248071,0,0,0.0248071,0,0)"/>
<path style=" stroke:none;fill-rule:nonzero;fill:rgb(0%,0%,0%);fill-opacity:0.588235;" d="M 7.9375 26 L 7.9375 26.175781 C 7.9375 26.214844 7.9375 26.253906 7.9375 26.292969 C 12.160156 27.542969 17.710938 28.300781 23.816406 28.300781 C 29.917969 28.300781 35.46875 27.542969 39.691406 26.292969 C 39.691406 26.253906 39.691406 26.214844 39.691406 26.175781 L 39.691406 26 C 35.496094 27.253906 29.933594 28.019531 23.816406 28.019531 C 17.695312 28.019531 12.132812 27.253906 7.9375 26 Z M 7.9375 26 "/>
<path style=" stroke:none;fill-rule:nonzero;fill:rgb(25.882354%,25.882354%,25.882354%);fill-opacity:1;" d="M 23.828125 29.152344 C 23.648438 29.144531 23.472656 29.230469 23.363281 29.375 L 21.875 31.359375 C 21.707031 31.585938 21.730469 31.898438 21.929688 32.097656 C 22.183594 32.351562 22.484375 32.449219 22.800781 32.523438 C 23.121094 32.601562 23.46875 32.632812 23.816406 32.632812 C 24.164062 32.632812 24.507812 32.601562 24.828125 32.523438 C 25.144531 32.449219 25.445312 32.351562 25.699219 32.097656 C 25.898438 31.898438 25.921875 31.585938 25.753906 31.359375 L 24.265625 29.375 C 24.160156 29.238281 24 29.15625 23.828125 29.152344 Z M 23.828125 29.152344 "/>
<path style=" stroke:none;fill-rule:nonzero;fill:rgb(25.882354%,25.882354%,25.882354%);fill-opacity:1;" d="M 23.566406 24.191406 L 24.0625 24.191406 C 24.199219 24.191406 24.3125 24.300781 24.3125 24.4375 L 24.3125 27.414062 C 24.3125 27.550781 24.199219 27.664062 24.0625 27.664062 L 23.566406 27.664062 C 23.429688 27.664062 23.320312 27.550781 23.320312 27.414062 L 23.320312 24.4375 C 23.320312 24.300781 23.429688 24.191406 23.566406 24.191406 Z M 23.566406 24.191406 "/>
<path style=" stroke:none;fill-rule:nonzero;fill:rgb(25.882354%,25.882354%,25.882354%);fill-opacity:1;" d="M 21.582031 25.652344 L 22.078125 25.652344 C 22.214844 25.652344 22.328125 25.765625 22.328125 25.902344 L 22.328125 27.390625 C 22.328125 27.527344 22.214844 27.636719 22.078125 27.636719 L 21.582031 27.636719 C 21.445312 27.636719 21.335938 27.527344 21.335938 27.390625 L 21.335938 25.902344 C 21.335938 25.765625 21.445312 25.652344 21.582031 25.652344 Z M 21.582031 25.652344 "/>
<path style=" stroke:none;fill-rule:nonzero;fill:rgb(25.882354%,25.882354%,25.882354%);fill-opacity:1;" d="M 19.597656 25.554688 L 20.09375 25.554688 C 20.230469 25.554688 20.339844 25.664062 20.339844 25.800781 L 20.339844 27.289062 C 20.339844 27.425781 20.230469 27.539062 20.09375 27.539062 L 19.597656 27.539062 C 19.460938 27.539062 19.347656 27.425781 19.347656 27.289062 L 19.347656 25.800781 C 19.347656 25.664062 19.460938 25.554688 19.597656 25.554688 Z M 19.597656 25.554688 "/>
<path style=" stroke:none;fill-rule:nonzero;fill:rgb(25.882354%,25.882354%,25.882354%);fill-opacity:1;" d="M 17.613281 25.40625 L 18.109375 25.40625 C 18.246094 25.40625 18.355469 25.515625 18.355469 25.652344 L 18.355469 27.140625 C 18.355469 27.277344 18.246094 27.390625 18.109375 27.390625 L 17.613281 27.390625 C 17.476562 27.390625 17.363281 27.277344 17.363281 27.140625 L 17.363281 25.652344 C 17.363281 25.515625 17.476562 25.40625 17.613281 25.40625 Z M 17.613281 25.40625 "/>
<path style=" stroke:none;fill-rule:nonzero;fill:rgb(25.882354%,25.882354%,25.882354%);fill-opacity:1;" d="M 15.628906 23.695312 L 16.125 23.695312 C 16.261719 23.695312 16.371094 23.804688 16.371094 23.941406 L 16.371094 26.917969 C 16.371094 27.054688 16.261719 27.167969 16.125 27.167969 L 15.628906 27.167969 C 15.492188 27.167969 15.378906 27.054688 15.378906 26.917969 L 15.378906 23.941406 C 15.378906 23.804688 15.492188 23.695312 15.628906 23.695312 Z M 15.628906 23.695312 "/>
<path style=" stroke:none;fill-rule:nonzero;fill:rgb(25.882354%,25.882354%,25.882354%);fill-opacity:1;" d="M 13.644531 24.910156 L 14.140625 24.910156 C 14.277344 24.910156 14.386719 25.019531 14.386719 25.15625 L 14.386719 26.644531 C 14.386719 26.78125 14.277344 26.894531 14.140625 26.894531 L 13.644531 26.894531 C 13.507812 26.894531 13.394531 26.78125 13.394531 26.644531 L 13.394531 25.15625 C 13.394531 25.019531 13.507812 24.910156 13.644531 24.910156 Z M 13.644531 24.910156 "/>
<path style=" stroke:none;fill-rule:nonzero;fill:rgb(25.882354%,25.882354%,25.882354%);fill-opacity:1;" d="M 11.660156 24.5625 L 12.15625 24.5625 C 12.292969 24.5625 12.402344 24.671875 12.402344 24.808594 L 12.402344 26.296875 C 12.402344 26.433594 12.292969 26.546875 12.15625 26.546875 L 11.660156 26.546875 C 11.523438 26.546875 11.410156 26.433594 11.410156 26.296875 L 11.410156 24.808594 C 11.410156 24.671875 11.523438 24.5625 11.660156 24.5625 Z M 11.660156 24.5625 "/>
<path style=" stroke:none;fill-rule:nonzero;fill:rgb(25.882354%,25.882354%,25.882354%);fill-opacity:1;" d="M 9.675781 24.117188 L 10.171875 24.117188 C 10.308594 24.117188 10.417969 24.226562 10.417969 24.363281 L 10.417969 25.851562 C 10.417969 25.988281 10.308594 26.101562 10.171875 26.101562 L 9.675781 26.101562 C 9.539062 26.101562 9.425781 25.988281 9.425781 25.851562 L 9.425781 24.363281 C 9.425781 24.226562 9.539062 24.117188 9.675781 24.117188 Z M 9.675781 24.117188 "/>
</g>
</svg>
